X:55
T:Sailors Set on Shore
S:Bernie Waugh
R:Reel
M:4/4
L:1/8
K:G minor
|:\
"Gm"BAGF DFGB|"F"AFcF dFcF|"Gm"~BAGF DFGA|"F"BABc "Gm"dgga|
"Gm"bgaf gdd=e|"F"fd~cB AFFA|"Eb"~BAGF DFGA|1\
"Cm"(3Bcd cA "Gm"BGG2:|2\
"Cm"(3Bcd cA "Gm"BGGF||
|:\
"Gm"G2g2 gagf|"F"F2f2 fgfe|"Eb"E2g2 E2ga|"Cm"bgaf "Gm"dgga|
"Gm"bgaf gdd=e|"F"fd~cB AFFA|"Eb"~BAGF DFGA|1\
"Cm"(3Bcd cA "Gm"BGGF:|2\
"Cm"(3Bcd cA "Gm"BGG2|]

